X:024
T:Cleaning the Henhouse (reel) 
B:CRE3.190 (Glanadh ChrÃÂÃÂÃÂÃÂ³ na gCearc)
F:file ID: cre.3/024clean_h
R:reel
L:1/8
Q:180
M:C
K:D
AFF2 dFF2|BAFB AFF2|AFF2 dedB|AFDF E2FG|
AFF2 dFF2|BAFB AFF2|BABc dfef|dBAF E3||
A|BABc dfef|d2ef dBBA|BABc dfef|dBAF E3A|
BABc dfef|d2ef dff2|bfaf egfe|dBAF E4||

%%%

